!!!OTL: Folk song Number 3
!!!CNT: Chinese
**kern
*k[]
*M2/4
=1
8cc
8dd
8cc
8dd
=2
8cc
(16dd
16ee)
(8cc
[8dd
=3
4.dd]
8ee
=4
4..dd
16ee)
=5
8cc
8cc
8dd
8dd
=6
(8ee
4.dd)
=7
8cc
8dd
(8ee
8dd)
=8
(16cc
16a
4.g)
=9
8cc
8cc
8a
8a
=10
8cc
8a
4cc
=11
8a
8a
8cc
8cc
=12
8g
8a
4g
=13
8a
8cc
8a
8a
=14
8cc
8g
4a
=15
8g
8g
8cc
8a
=16
8cc
(16g
16a)
4cc
=17
8cc
8cc
8a
8a
=18
8cc
8g
4a
=19
8cc
8g
8a
8a
=20
8cc
8a
4cc
=21
8ee
8ee
8dd
8dd
=22
(8ee
4.dd)
=23
8cc
8cc
8ee
8dd
=24
8dd
(16a
16cc)
(8g
16a
[16g
!! page 3
=25
2g)]
=26
8cc
8cc
8dd
8dd
=27
(8ee
4.dd)
=28
4cc
(8dd
8ee)
=29
(8cc
4.a)
=30
8dd
8dd
8ee
8cc
=31
(8ee
4.dd)
=32
8dd
(16dd
16ee)
(8cc
8dd;)
=33
(16cc
16a
4.g;)
==
*-
!!!PPR: Yin yueh ch'u pan she
!!!OPR: Chung-kuo min ko Chung-kuo yin yueh yen chiu so pien [Chinese folk songs]
!!!OCL: Chung-kuo yin yueh yen chiu so
!!!PPP: Beijing, China
!!!PDT: 1959///
!!!SML: Edward Johnson Library, University of Toronto M1804.C4694C5
!!!PPG: pp.2-3
!!!ENC: David Huron
!!!EMD: Paul von Hippel updated this file in the following ways (1998/9/29/):
!!!EMD:  (1) changed the representation of slurs from curly braces to parentheses 
!!!EMD:  (2) changed freeform comments into reference records and tandem interpretations
!!!EMD:  (3) corrected the author, title, author, and call number of the printed source 
!!!EEV: Version 2.0
